X: 40549
T: Tommy Peoples'
R: mazurka
M: 3/4
K: Dmajor
|:DF A2 A2|dc B2 B2|ef ge cA|Bc B2 A2|
DF A2 A2|dc B2 B2|ef ge cA|Bc d2 d2:|
|:fg af dF|Ad c2 B2|ef ge cA|Bc B2 A2|
fg af dF|Ad c2 B2|ef ge cA|Bc d2 d2:|

